X:45
T:Auld Lang Syne
C:arr. Carlo Minasi
M:2/4
L:1/8
B:Chappell's One Hundred Scotch Melodies
B:Arranged for the Concertina by Carlo Minasi
Q:"Slow"1/4=80
Z:Peter Dunk 2012
K:G
!p!D|G>G(GB)|!crescendo(!(A>GA!crescendo)!B)|\
(GGB[dB])|([e3c3] g)|([dB]>B)(BG)|\
([AFD]>GAB)|L(G>E) L(E>D)|G3||
e|([dBG]<B) (BG)|([AFD]>GAB)|(d<B) (Bd)|\
L[e3c3G3C3] g|([dBG]>B) (BG)|\
([AFD]>GAB)|L(G>E) L(E>D)|[G3B,3]||

